svg/moped_electric_outline.svg

<svg xmlns="http://www.w3.org/2000/svg" viewBox="0 0 24 24"><path d="M19 5c0-1.1-.9-2-2-2h-3v2h3v2.65L13.5 12H10V7H6c-2.21 0-4 1.79-4 4v3h2c0 1.66 1.34 3 3 3s3-1.34 3-3h4.5L19 8.35zM4 12v-1c0-1.1.9-2 2-2h2v3zm3 3c-.55 0-1-.45-1-1h2c0 .55-.45 1-1 1M5 4h5v2H5zm14 7c-1.66 0-3 1.34-3 3s1.34 3 3 3 3-1.34 3-3-1.34-3-3-3m0 4c-.55 0-1-.45-1-1s.45-1 1-1 1 .45 1 1-.45 1-1 1M7 20h4v-2l6 3h-4v2z"/></svg>

<?xml version="1.0" encoding="UTF-8"?><!DOCTYPE svg PUBLIC "-//W3C//DTD SVG 1.1//EN" "http://www.w3.org/Graphics/SVG/1.1/DTD/svg11.dtd"><svg xmlns="http://www.w3.org/2000/svg" xmlns:xlink="http://www.w3.org/1999/xlink" version="1.1" id="mdi-moped-electric-outline" width="24" height="24" viewBox="0 0 24 24"><path d="M19 5C19 3.9 18.1 3 17 3H14V5H17V7.65L13.5 12H10V7H6C3.79 7 2 8.79 2 11V14H4C4 15.66 5.34 17 7 17S10 15.66 10 14H14.5L19 8.35V5M4 12V11C4 9.9 4.9 9 6 9H8V12H4M7 15C6.45 15 6 14.55 6 14H8C8 14.55 7.55 15 7 15M5 4H10V6H5V4M19 11C17.34 11 16 12.34 16 14S17.34 17 19 17 22 15.66 22 14 20.66 11 19 11M19 15C18.45 15 18 14.55 18 14S18.45 13 19 13 20 13.45 20 14 19.55 15 19 15M7 20H11V18L17 21H13V23L7 20Z" /></svg>
